X:1
T:Ring the Bells (Mack)
T:Ring the Bells (Mack)
T:Joseph Lincoln Hall
T:Irvin H. Mack, 1900
T:Public Domain Courtesy of the Cyber Hymnal™
T:Public Domain Courtesy of the Cyber Hymnal™
C:Joseph Lincoln Hall
Z:Public Domain
Z:Courtesy of the Cyber Hymnal™
%%score ( 1 2 ) ( 3 4 )
L:1/8
Q:1/4=102
M:6/8
K:Ab
V:1 treble 
V:2 treble 
V:3 bass 
V:4 bass 
V:1
 [CE] | ([DF][CE])[=B,=D] [CE]2 [CA] | [Ec]3 [CA]2 [CE] | ([DF][CE])[=B,=D] [CE]2 [CA] | %4
w: 1.~The|bells * of Heav’n are|ring- ing, Are|tell- * ing of the|
w: 2.~O|ring, * ye bells of|Heav- en, Re-|ech- * o loud and|
w: 3.~O|ring, * ye bells of|Hea- ven, Up-|on * this day of|
 [DG]3- [DG]2 [DE] | (FE)=D [_DE]2 [DG] | [Dd]3 [DB]2 [DB] | (B=A)[DB] [DF]2 [DG] | %8
w: King; * Who|came * sal- va- tion|bring- ing And|heal- * ing in His|
w: long; * Let|un- * to men be|giv- en A|new * and hap- py|
w: cheer; * O|ring * the glor- ious|tid- ings, For|Christ * the King is|
 [CE]3- [CE]2 [CE] | ([DF][CE])[=B,=D] [CE]2 [CA] | [Ec]3 [CA]2 [CA] | (AG)[EA] [EB]2 [EA] | %12
w: wing. * He|came * to lift op-|pres- sion, To|ban- * ish sin and|
w: song. * O|ring * a- loud in|glad- ness, Let|heaven- * ly joy be|
w: here. * Re-|ech- * o o’er the|hill- tops, Re-|sound- * ing ev- ery-|
 [Dd]3- [Dd]2 [DA] | (AG)[DA] [CE]2 [EA] | (AG)[_DA] E2 [Ec] | [Ge]2 [Gd] [Gc]2 [GB] | A3- A2 || %17
w: wrong; * He|came, * our light, to|scat- * ter night, And|give to earth a|song. *|
w: known; * O|earth, * a- wake, this|joy * par- take, Claim|Je- sus as your|own. *|
w: where; * The|Sav- * ior dear comes|hearts * to cheer: His|king- dom earth may|share. *|
"^Unison""^Refrain" [CEc]3 [CFc]3 | [CEc]3- [CEc]2"^Parts" [CE] | ([DF][CE])[=B,=D] [CE]2 [CE] | %20
w: |||
w: Ring, ring,|ring, * O|ring, * ye bells, ye|
w: |||
 ([DF][CE])[=B,=D] [CE]2 [CE] |"^Unison" [DFd]3 [DGd]3 | [DGd]3- [DGd]2"^Parts" [DF] | %23
w: |||
w: mer- * ry bells, O|ring, ring,|ring, * O|
w: |||
 (GF)[D=E] [DF]2 [DF] | (GF)[D=E] [DF]2 [D_E] |"^Unison" [Ece]3 [Ece]3 | [EAe]3- [EAe]2 [Ece] | %27
w: ||||
w: ring, * ye bells, ye|mer- * ry bells, O|ring, ring,|ring, * Ye|
w: ||||
 [Ece]3 [=EBc=e]3 | [FAdf]6 | (c e2 c e2) | (B e2 B e2) | A6- | A6- | [EA]3- [EA]2 |] %34
w: |||||||
w: Christ- mas|bells,|ring, * * *|ring, * * *|Ring,||ye *|
w: |||||||
V:2
 x | x6 | x6 | x6 | x6 | D2 =D x3 | x6 | D2 x4 | x6 | x6 | x6 | E2 x4 | x6 | D2 x4 | =D2 E2 x2 | %15
w: |||||||||||||||
w: |||||||||||||||
 x6 | A3- A2 || x6 | x6 | x6 | x6 | x6 | x6 | D2 x4 | D2 x4 | x6 | x6 | x6 | x6 | E3 E3 | G3 G3 | %31
w: ||||||||||||||||
w: ||||||||||||||||
 C2 E (FE)=D | (E2 E) (FE)=D | x5 |] %34
w: |||
w: |O * * ring ye||
V:3
 [A,,A,] | [A,,A,]2 [A,,A,] [A,,A,]2 [A,,A,] | [A,,A,]3 [A,,A,]2 [A,,A,] | %3
 [A,,A,]2 [A,,A,] [A,,A,]2 [A,,A,] | [E,B,]3- [E,B,]2 [E,B,] | [E,B,]2 [E,B,] [E,B,]2 [E,B,] | %6
 [E,G,]3 [E,G,]2 [E,G,] | [E,G,]2 [E,G,] [E,B,]2 [E,B,] | [A,,A,]3- [A,,A,]2 [A,,A,] | %9
 [A,,A,]2 [A,,A,] [A,,A,]2 [A,,A,] | [A,,A,]3 [A,,A,]2 A, | [A,C]2 [A,C] [_G,C]2 [G,C] | %12
 [F,A,]3- [F,A,]2 [F,A,] | [F,A,]2 [F,A,] [E,A,]2 [E,C] | [_F,_C]2 [F,C] [E,=C]2 [D,A,] | %15
 [E,B,]2 [E,B,] [E,E]2 [E,D] | [A,C]3- [A,C]2 || [A,,A,]3 [A,,A,]3 | [A,,A,]3- [A,,A,]2 [A,,A,] | %19
 [A,,A,]2 [A,,A,] [A,,A,]2 [A,,A,] | [A,,A,]2 [A,,A,] [A,,A,]2 [A,,A,] | [E,B,]3 [E,B,]3 | %22
 [E,B,]3- [E,B,]2 [E,B,] | [E,B,]2 [E,B,] [E,B,]2 [E,B,] | [E,B,]2 [E,B,] [E,B,]2 [E,B,] | %25
 [A,C]3 [A,C]3 | [A,C]3- [A,C]2 [A,C] | [A,C]3 [C,G,B,]3 | [D,A,]6 | [E,A,C]3[K:treble] [EAc]3 | %30
 [E,B,D]3[K:treble] [EBd]3 | f2 a (ba)g | (a2 a) (ba)g | [Fa]3- [Fa]2 |] %34
V:4
 x | x6 | x6 | x6 | x6 | x6 | x6 | x6 | x6 | x6 | x5 A, | x6 | x6 | x6 | x6 | x6 | x5 || x6 | x6 | %19
 x6 | x6 | x6 | x6 | x6 | x6 | x6 | x6 | x6 | x6 | x3[K:treble] x3 | x3[K:treble] x3 | F6- | F6- | %33
 x5 |] %34

